data/sheikah/8.svg

<!-- Generated by IcoMoon.io -->
<svg version="1.1" xmlns="http://www.w3.org/2000/svg" width="1024" height="1024" viewBox="0 0 1024 1024">
<title></title>
<g id="icomoon-ignore">
</g>
<path d="M751 870.5l119.5-119.5v-179.5l-119.5-119.5h-478l-119.5 119.5v179.5l119.5 119.5v-299h478v299zM153.5 273l119.5-119.5h478l119.5 119.5h-717zM572 870.5h-119.5v-119.5h119.5v119.5z"></path>
</svg>

<svg xmlns="http://www.w3.org/2000/svg" width="1024" height="1024" viewBox="0 0 1024 1024">
  <title/>
  <path d="M751 870.5 870.5 751V571.5L751 452H273L153.5 571.5V751L273 870.5v-299h478zM153.5 273 273 153.5h478L870.5 273zM572 870.5H452.5V751H572z"/>
</svg>
